public/src/images/icons/topics.svg

<svg width="14" height="16" viewBox="0 0 14 16" fill="none" xmlns="http://www.w3.org/2000/svg">
<path fill-rule="evenodd" clip-rule="evenodd" d="M10.8321 6.75068L10.2985 9.29315H13.2279V11.5507H9.85564L8.98135 16H6.48337L7.36902 11.5507H5.16626L4.30333 16H1.86212L2.70235 11.5507H0V9.29315H3.14517L3.67883 6.75068H0.817518V4.46027H4.09895L4.97324 0H7.45985L6.58556 4.46027H8.83374L9.71938 0H12.1606L11.2749 4.46027H14V6.75068H10.8321ZM5 9.49233H8.22634L8.78892 7H5.56258L5 9.49233Z" fill="white"/>
</svg>

<svg width="14" height="16" fill="none" xmlns="http://www.w3.org/2000/svg"><path fill-rule="evenodd" clip-rule="evenodd" d="M10.832 6.75l-.534 2.543h2.93v2.258H9.856L8.98 16H6.483l.886-4.45H5.166L4.303 16h-2.44l.84-4.45H0V9.294h3.145l.534-2.542H.818V4.46h3.281L4.973 0H7.46l-.874 4.46h2.248L9.719 0h2.442l-.886 4.46H14v2.29h-3.168zM5 9.493h3.226L8.79 7H5.563L5 9.492z" fill="#fff"/></svg>
